app/icons/key.svg

<svg fill="#000000" height="24" viewBox="0 0 24 24" width="24" xmlns="http://www.w3.org/2000/svg">
    <path d="M0 0h24v24H0z" fill="none"/>
    <path d="M12.65 10C11.83 7.67 9.61 6 7 6c-3.31 0-6 2.69-6 6s2.69 6 6 6c2.61 0 4.83-1.67 5.65-4H17v4h4v-4h2v-4H12.65zM7 14c-1.1 0-2-.9-2-2s.9-2 2-2 2 .9 2 2-.9 2-2 2z"/>
</svg>

<?xml version="1.0" encoding="UTF-8" standalone="no"?>
<svg width="24px" height="14px" viewBox="0 0 24 14" version="1.1" xmlns="http://www.w3.org/2000/svg" xmlns:xlink="http://www.w3.org/1999/xlink" xmlns:sketch="http://www.bohemiancoding.com/sketch/ns">
    <!-- Generator: Sketch 3.4.4 (17249) - http://www.bohemiancoding.com/sketch -->
    <title>Shape</title>
    <desc>Created with Sketch.</desc>
    <defs></defs>
    <g id="Page-1" stroke="none" stroke-width="1" fill="none" fill-rule="evenodd" sketch:type="MSPage">
        <g id="key" sketch:type="MSLayerGroup" transform="translate(0.000000, -5.000000)" stroke="#F7C500" fill="#FFFFFF">
            <path d="M12.65,10 C11.83,7.67 9.61,6 7,6 C3.69,6 1,8.69 1,12 C1,15.31 3.69,18 7,18 C9.61,18 11.83,16.33 12.65,14 L17,14 L17,18 L21,18 L21,14 L23,14 L23,10 L12.65,10 L12.65,10 Z M7,14 C5.9,14 5,13.1 5,12 C5,10.9 5.9,10 7,10 C8.1,10 9,10.9 9,12 C9,13.1 8.1,14 7,14 L7,14 Z" id="Shape" sketch:type="MSShapeGroup"></path>
        </g>
    </g>
</svg>
